src/components/profile_avatars/profile-female-3.svg

<svg xmlns="http://www.w3.org/2000/svg" width="528" height="528" fill="none" viewBox="0 0 528 528"><g clip-path="url(#a)"><ellipse cx="265.5" cy="281.5" fill="#59a315" rx="257.5" ry="254.5"/><path fill="#222223" d="M534.952 954.466c30.616 353.704 65.731 633.744-116.243 649.494-181.975 15.75-386.9357-295.79-417.55146-649.496C-34.6433 529.335 72.1603 447.409 228.067 386.164c196.043-23.261 339.705 83.327 379.243 202.948 87.788 265.605-88.129 183.148-72.358 365.354"/><path fill="#4b4b4b" d="M385.94 560.775c-51.218 46.889-158.866 40.265-215.97-24.892-13.178-18.302-35.141-61.496-24.891-82.727 9.676-20.043 57.836-49.295 76.138-65.157-.732 4.88-.878 16.252-1.464 25.623-.732 11.714-7.321 69.55 28.552 89.317s68.818 10.249 89.316-11.714c16.399-17.57 21.963-75.162 22.695-101.762 3.173.732 11.714 2.782 20.499 5.125 8.786 2.342 36.117 10.737 46.855 14.642 1.464 29.284 10.249 103.958-41.73 151.545"/><path fill="#faceb2" d="M221.281 387.785c8.435-74.819-16.065-119.511-5.358-207.926 48.183-45.976 131.269 12.405 131.269 71.819 0 59.415-5.125 105.364 13.856 140.086-5.353 31.83.733 111.907-59.3 120.692-94.872 13.884-85.199-82.695-80.467-124.671"/><path fill="#e9b695" d="M284.957 389.4c-28.143 5.292-55.484-14.65-61.69-24.443l-.586-12.745c6.982-2.099 29.698 2.058 58.866 7.094 29.169 5.036 43.353-34.602 65.591-48.824l1.465 6.589c-.776 9.092.732 16.838-2.929 24.159-12.905 25.811-37.77 43.856-60.717 48.17"/><path fill="#da4721" d="M125.635 366.84c16.43-43.998 57.182-99.612 84.194-132.583 11.577 10.523 34.73 38.302 34.73 65.239 0 33.672-18.944 87.336-47.359 132.583-22.733 36.197-8.052 79.892 5.629 102.34-12.278-4.91-33.822-17.83-60.764-43.926-33.678-32.619-28.261-91.971-16.43-123.653"/><rect width="50.176" height="75.264" x="370.835" y="176.553" fill="#faceb2" rx="25.088" transform="rotate(24.59 370.835 176.553)"/><rect width="48.7083" height="73.0624" fill="#faceb2" rx="24.3541" transform="rotate(166.16114 76.32114934 100.39685296)scale(1 -1)"/><path fill="#faceb2" d="M386.61 200.272c-.901-21.544-22.003-116.038-33.704-139.6547-33.942 34.0977-89.245 31.7754-132.421 19.9016-34.542-9.499-50.862 45.7091-58.153 54.7881-7.291 9.078-7.85 24.547-14.034 58.822-7.73 42.844 36.818 180.812 126.42 180.812 75.851 0 113.019-147.738 111.892-174.669"/><path fill="#fdfcf5" d="M259.274 303.909c16.657-.626 37.67-6.929 44.495-10.266-6.709 6.413-18.077 27.093-38.898 27.875-28.485 1.069-37.215-18.856-44.386-24.748 7.056 2.816 22.132 7.764 38.789 7.139"/><path fill="#bd3815" d="M210.236 114.192c-31.481.733-35.874 14.642-50.516 31.481 0-15.618 4.979-53.8831 24.892-81.9958 24.891-35.1409 54.175-4.3927 103.226-4.3927 39.241 0 63.693 43.4385 71.014 65.1575-2.44-1.22-12.738-4.978-34.409-10.25-27.087-6.589-45.39 2.929-62.228 4.393-16.839 1.464-20.499-5.125-51.979-4.393"/><path fill="#da4721" d="M306.873 92.2277c-22.972-4.0444-46.666 2.6603-52.711 18.3013-8.785-12.4453-28.552-20.7621-50.515-18.3013-30.412 3.4073-45.028 46.8533-50.515 82.7263-8.126 53.13 8.848 93.808 16.106 112.814-5.857 0-13.91 0-28.494-15.382-10.731-11.318-34.148-57.607-39.592-97.432-5.4431-39.824-4.3922-101.0289 36.605-136.1698 42.071-36.06112 79.067-24.8965 92.978-19.7676 6.351-5.4322 10.558-13.95451 46.122-18.299021C321.312-4.71306 359.525 21.5613 386.672 49.7658c32.311 33.569 34.409 55.1742 34.409 129.3902 0 59.372-46.439 113.694-68.818 132.702 15.026-34.929 17.96-49.835 12.569-63.914-3.495 15.558-8.181 24.222-24.495 39.824 7.91-15.216 23.804-75.328 17.783-120.866-4.746-35.903-23.704-69.8253-51.247-74.6743"/><path fill="#faceb2" d="M375.322 214.491c4.029-29.284 1.478-32.417 0-45.368 7.982 3.695 24.45-1.688 26.21 24.103.999 14.636-13.656 34.536-29.502 35.907.749-2.635 2.574-9.427 3.292-14.642"/><circle cx="222.681" cy="410.694" r="9.51733" fill="#fff"/><circle cx="235.859" cy="423.872" r="9.51733" fill="#fff"/><circle cx="253.43" cy="431.193" r="9.51733" fill="#fff"/><circle cx="272.464" cy="434.121" r="9.51733" fill="#fff"/><circle cx="291.499" cy="434.121" r="9.51733" fill="#fff"/><circle cx="310.533" cy="429.729" r="9.51733" fill="#fff"/><circle cx="326.64" cy="419.479" r="9.51733" fill="#fff"/><circle cx="342.746" cy="409.23" r="9.51733" fill="#fff"/><circle cx="355.924" cy="397.516" r="9.51733" fill="#fff"/></g><defs><clipPath id="a"><path fill="#fff" d="M0 264C0 118.197 118.197 0 264 0s264 118.197 264 264-118.197 264-264 264S0 409.803 0 264"/></clipPath></defs></svg>

<svg width="528" height="528" viewBox="0 0 528 528" fill="none" xmlns="http://www.w3.org/2000/svg">
<g clip-path="url(#clip0_15659_307898)">
<ellipse cx="265.5" cy="281.5" rx="257.5" ry="254.5" fill="#59A315"/>
<path d="M534.952 954.466C565.568 1308.17 600.683 1588.21 418.709 1603.96C236.734 1619.71 31.7733 1308.17 1.15754 954.464C-34.6433 529.335 72.1603 447.409 228.067 386.164C424.11 362.903 567.772 469.491 607.31 589.112C695.098 854.717 519.181 772.26 534.952 954.466Z" fill="#222223"/>
<path d="M385.94 560.775C334.722 607.664 227.074 601.04 169.97 535.883C156.792 517.581 134.829 474.387 145.079 453.156C154.755 433.113 202.915 403.861 221.217 387.999C220.485 392.879 220.339 404.251 219.753 413.622C219.021 425.336 212.432 483.172 248.305 502.939C284.178 522.706 317.123 513.188 337.621 491.225C354.02 473.655 359.584 416.063 360.316 389.463C363.489 390.195 372.03 392.245 380.815 394.588C389.601 396.93 416.932 405.325 427.67 409.23C429.134 438.514 437.919 513.188 385.94 560.775Z" fill="#4B4B4B"/>
<path d="M221.281 387.785C229.716 312.966 205.216 268.274 215.923 179.859C264.106 133.883 347.192 192.264 347.192 251.678C347.192 311.093 342.067 357.042 361.048 391.764C355.695 423.594 361.781 503.671 301.748 512.456C206.876 526.34 216.549 429.761 221.281 387.785Z" fill="#FACEB2"/>
<path d="M284.957 389.4C256.814 394.692 229.473 374.75 223.267 364.957L222.681 352.212C229.663 350.113 252.379 354.27 281.547 359.306C310.716 364.342 324.9 324.704 347.138 310.482L348.603 317.071C347.827 326.163 349.335 333.909 345.674 341.23C332.769 367.041 307.904 385.086 284.957 389.4Z" fill="#E9B695"/>
<path d="M125.635 366.84C142.065 322.842 182.817 267.228 209.829 234.257C221.406 244.78 244.559 272.559 244.559 299.496C244.559 333.168 225.615 386.832 197.2 432.079C174.467 468.276 189.148 511.971 202.829 534.419C190.551 529.509 169.007 516.589 142.065 490.493C108.387 457.874 113.804 398.522 125.635 366.84Z" fill="#DA4721"/>
<rect x="370.835" y="176.553" width="50.176" height="75.264" rx="25.088" transform="rotate(24.59 370.835 176.553)" fill="#FACEB2"/>
<rect width="48.7083" height="73.0624" rx="24.3541" transform="matrix(-0.970972 0.239192 0.239192 0.970972 174.441 179.624)" fill="#FACEB2"/>
<path d="M386.61 200.272C385.709 178.728 364.607 84.234 352.906 60.6173C318.964 94.715 263.661 92.3927 220.485 80.5189C185.943 71.0199 169.623 126.228 162.332 135.307C155.041 144.385 154.482 159.854 148.298 194.129C140.568 236.973 185.116 374.941 274.718 374.941C350.569 374.941 387.737 227.203 386.61 200.272Z" fill="#FACEB2"/>
<path d="M259.274 303.909C275.931 303.283 296.944 296.98 303.769 293.643C297.06 300.056 285.692 320.736 264.871 321.518C236.386 322.587 227.656 302.662 220.485 296.77C227.541 299.586 242.617 304.534 259.274 303.909Z" fill="#FDFCF5"/>
<path d="M210.236 114.192C178.755 114.925 174.362 128.834 159.72 145.673C159.72 130.055 164.699 91.7899 184.612 63.6772C209.503 28.5363 238.787 59.2845 287.838 59.2845C327.079 59.2845 351.531 102.723 358.852 124.442C356.412 123.222 346.114 119.464 324.443 114.192C297.356 107.603 279.053 117.121 262.215 118.585C245.376 120.049 241.716 113.46 210.236 114.192Z" fill="#BD3815"/>
<path d="M306.873 92.2277C283.901 88.1833 260.207 94.888 254.162 110.529C245.377 98.0837 225.61 89.7669 203.647 92.2277C173.235 95.635 158.619 139.081 153.132 174.954C145.006 228.084 161.98 268.762 169.238 287.768C163.381 287.768 155.328 287.768 140.744 272.386C130.013 261.068 106.596 214.779 101.152 174.954C95.7089 135.13 96.7598 73.9251 137.757 38.7842C179.828 2.72308 216.824 13.8877 230.735 19.0166C237.086 13.5844 241.293 5.06209 276.857 0.717579C321.312 -4.71306 359.525 21.5613 386.672 49.7658C418.983 83.3348 421.081 104.94 421.081 179.156C421.081 238.528 374.642 292.85 352.263 311.858C367.289 276.929 370.223 262.023 364.832 247.944C361.337 263.502 356.651 272.166 340.337 287.768C348.247 272.552 364.141 212.44 358.12 166.902C353.374 130.999 334.416 97.0767 306.873 92.2277Z" fill="#DA4721"/>
<path d="M375.322 214.491C379.351 185.207 376.8 182.074 375.322 169.123C383.304 172.818 399.772 167.435 401.532 193.226C402.531 207.862 387.876 227.762 372.03 229.133C372.779 226.498 374.604 219.706 375.322 214.491Z" fill="#FACEB2"/>
<circle cx="222.681" cy="410.694" r="9.51733" fill="white"/>
<circle cx="235.859" cy="423.872" r="9.51733" fill="white"/>
<circle cx="253.43" cy="431.193" r="9.51733" fill="white"/>
<circle cx="272.464" cy="434.121" r="9.51733" fill="white"/>
<circle cx="291.499" cy="434.121" r="9.51733" fill="white"/>
<circle cx="310.533" cy="429.729" r="9.51733" fill="white"/>
<circle cx="326.64" cy="419.479" r="9.51733" fill="white"/>
<circle cx="342.746" cy="409.23" r="9.51733" fill="white"/>
<circle cx="355.924" cy="397.516" r="9.51733" fill="white"/>
</g>
<defs>
<clipPath id="clip0_15659_307898">
<path d="M0 264C0 118.197 118.197 0 264 0C409.803 0 528 118.197 528 264C528 409.803 409.803 528 264 528C118.197 528 0 409.803 0 264Z" fill="white"/>
</clipPath>
</defs>
</svg>
